X: 151
T: SLIP JIG: Rocky Road to Dublin
C: C: Trad.; S: Various
C: Set Leaders: Andrey, Anton
Z: [Unedited]; agentf64 at The Session
N: https://thesession.org/members/26966/sets/96719
R: Slip Jig
M: 9/8
L: 1/8
Q: 3/8=114
K: Ador
|:efe d2B A3|E2A A2A Bcd|efe d2B A2c|B2G G2A Bcd:||
|:e2a a2f g3|e2a a2A Bcd|1 e2a a2f g2e|d2B G2A Bcd:|2 efg fga g2e|d2B G2A Bcd||

